X:21124 
T:MARKET GIRL, The 
B:DMI.0180
Z:Nordberg/Black
R:jig
%Q:1/4=160
M:6/8
L:1/8
K:G
DEF GBG|AGA BGE|DEF G2d|AEE GEE|
DEF GBd|AGA B2g|gfe dBG|AGE GED:|
Bdd dBd|ege dBG|Bdd dcB|AGE GED|
Bdd d2f|edB def|gfe dcB|AGE GED:|

%%%

